svg/departments.svg

<svg width="24" height="24" viewBox="0 0 24 24" xmlns="http://www.w3.org/2000/svg">
<path d="M5.04146 3C5.22009 2.6906 5.55022 2.5 5.90748 2.5L9.75278 2.5C10.11 2.5 10.4402 2.6906 10.6188 3L12.5415 6.33013C12.7201 6.63953 12.7201 7.02073 12.5415 7.33013L10.6188 10.6603C10.4402 10.9697 10.11 11.1603 9.75278 11.1603H5.90748C5.55022 11.1603 5.22009 10.9697 5.04146 10.6603L3.11881 7.33013C2.94017 7.02073 2.94017 6.63953 3.11881 6.33013L5.04146 3Z"/>
<path d="M5.1216 13.2272C5.30023 12.9178 5.63036 12.7272 5.98762 12.7272H9.83292C10.1902 12.7272 10.5203 12.9178 10.6989 13.2272L12.6216 16.5574C12.8002 16.8668 12.8002 17.248 12.6216 17.5574L10.6989 20.8875C10.5203 21.1969 10.1902 21.3875 9.83292 21.3875H5.98762C5.63036 21.3875 5.30023 21.1969 5.1216 20.8875L3.19895 17.5574C3.02031 17.248 3.02031 16.8668 3.19895 16.5574L5.1216 13.2272Z"/>
<path d="M14.1216 8.22723C14.3002 7.91783 14.6304 7.72723 14.9876 7.72723L18.8329 7.72723C19.1902 7.72723 19.5203 7.91783 19.6989 8.22723L21.6216 11.5574C21.8002 11.8668 21.8002 12.248 21.6216 12.5574L19.6989 15.8875C19.5203 16.1969 19.1902 16.3875 18.8329 16.3875H14.9876C14.6304 16.3875 14.3002 16.1969 14.1216 15.8875L12.1989 12.5574C12.0203 12.248 12.0203 11.8668 12.1989 11.5574L14.1216 8.22723Z"/>
</svg>

<svg width="24" height="24" viewBox="0 0 24 24" xmlns="http://www.w3.org/2000/svg"><path d="M5.041 3a1 1 0 0 1 .866-.5h3.846a1 1 0 0 1 .866.5l1.922 3.33a1 1 0 0 1 0 1l-1.922 3.33a1 1 0 0 1-.866.5H5.907a1 1 0 0 1-.866-.5L3.12 7.33a1 1 0 0 1 0-1L5.04 3zM5.122 13.227a1 1 0 0 1 .866-.5h3.845a1 1 0 0 1 .866.5l1.923 3.33a1 1 0 0 1 0 1l-1.923 3.33a1 1 0 0 1-.866.5H5.988a1 1 0 0 1-.866-.5l-1.923-3.33a1 1 0 0 1 0-1l1.923-3.33zM14.122 8.227a1 1 0 0 1 .866-.5h3.845a1 1 0 0 1 .866.5l1.923 3.33a1 1 0 0 1 0 1l-1.923 3.33a1 1 0 0 1-.866.5h-3.845a1 1 0 0 1-.866-.5l-1.923-3.33a1 1 0 0 1 0-1l1.923-3.33z"/></svg>
